X:1
T: Drookit Donald
C:C Sherrit
R:Jig
Q:180
K:A
M:6/8
L:1/16
|:E2|c2d2e2 A4G2|F2D2F2 E2A2B2|c2B2A2 c2e2A2|G2B2B2 B4E2|
c2d2e2 A4G2|F2D2F2 B2c2d2|c2B2A2 E2A2G2|1A6 A4E2:|2A6 A4d2|
|:c2d2e2 e4c2|d2e2f2 B4A2|G4B2 E2F2G2|A4c2 B2c2d2|
|1c2d2e2 e4c2|d2e2f2 B4A2|G2A2B2 E2A2G2|A6 A4d2:|
|2c2d2e2 A4G2|F2D2F2 B2c2d2|c2B2A2 E2A2G2|A6 A4||
